svgs/light/joystick.svg

<svg xmlns="http://www.w3.org/2000/svg" viewBox="0 0 448 512"><!-- Font Awesome Pro 6.0.0-alpha2 by @fontawesome - https://fontawesome.com License - https://fontawesome.com/license (Commercial License) --><path d="M400 352H240V222.387C294.209 214.563 336 168.375 336 112C336 50.145 285.855 0 224 0S112 50.145 112 112C112 168.375 153.791 214.562 208 222.387V352H48C21.49 352 0 373.49 0 400V464C0 490.51 21.49 512 48 512H400C426.51 512 448 490.51 448 464V400C448 373.49 426.51 352 400 352ZM144 112C144 67.889 179.889 32 224 32S304 67.889 304 112S268.111 192 224 192S144 156.111 144 112ZM416 464C416 472.822 408.822 480 400 480H48C39.178 480 32 472.822 32 464V400C32 391.178 39.178 384 48 384H400C408.822 384 416 391.178 416 400V464ZM232 80C232 66.744 221.254 56 208 56S184 66.744 184 80C184 93.254 194.746 104 208 104S232 93.254 232 80ZM64 320H128C136.844 320 144 312.844 144 304S136.844 288 128 288H64C55.156 288 48 295.156 48 304S55.156 320 64 320Z"/></svg>

<svg xmlns="http://www.w3.org/2000/svg" viewBox="0 0 448 512"><!--! Font Awesome Pro 6.3.0 by @fontawesome - https://fontawesome.com License - https://fontawesome.com/license (Commercial License) Copyright 2023 Fonticons, Inc. --><path d="M400 352h-160V222.4c54.21-7.824 96.01-54.02 96.01-110.4c0-61.86-50.15-111.1-112-111.1S111.1 50.14 111.1 111.1c0 56.38 41.8 102.6 96.01 110.4V352h-160C21.49 352 0 373.5 0 400v64C0 490.5 21.49 512 48 512h352c26.51 0 48-21.49 48-48v-64C448 373.5 426.5 352 400 352zM144 112C144 67.89 179.9 32 224 32s80 35.89 80 80S268.1 192 224 192S144 156.1 144 112zM416 464c0 8.822-7.178 16-16 16h-352C39.18 480 32 472.8 32 464v-64C32 391.2 39.18 384 48 384h352c8.822 0 16 7.178 16 16V464zM232 80c0-13.26-10.75-24-24-24S184 66.74 184 80c0 13.25 10.75 24 24 24S232 93.25 232 80zM64 320h64c8.844 0 16-7.156 16-16S136.8 288 128 288H64C55.16 288 48 295.2 48 304S55.16 320 64 320z"/></svg>
